X:1
T:Title
%%score { ( 1 3 5 ) | ( 2 4 6 7 ) }
L:1/8
M:6/8
K:Ab
V:1 treble nm="Grand Piano"
V:3 treble 
V:5 treble 
V:2 bass 
V:4 bass 
V:6 bass 
V:7 bass 
V:1
 z3 z2[Q:1/4=81] E | [Ec][=D_c][E=c] [Fd][Ec][_DG] | [CB][CA][DF] [CE]2 [Ec] | [Fd]=EF c2 G | %4
 A2- [DA-] [CA]2 [A,CA] | [A,FA][=EG][FA] [FB][FA][DF] |[M:5/8] [CE][CA]B c2 |[M:1/8] [Ec]/[Ec]/ | %8
[M:3/4] [=Dc][DF] [DG] [DA]2 [Dc] |[M:5/8] B-B- B3 |[M:1/8] E | %11
[M:3/4] [Ec][=D_c] [E=c] [Fd]2 [Ec] | [=DF]3 [DB]2 [DA] | [EG][Gd] [B,EG] [A,DF]2 [G,D=E] | E6 | %15
 [A,DF][G,D=E] [A,DF] [_CFA]2 G/F/ |[M:25/32] EAB c2 d/-[=Ed]3/4 | %17
[M:3/4] (7:8:8c3/4A-A/8[FGd]3/4[EG-c-]3/4[Gc]-[Gc]/8[DGB]3/4 |[M:5/8] z2 F- F/4 z/4 z/ z |] %19
V:2
 z3 z2 [E,G,] | [A,,A,][A,,A,][A,,A,] [A,,A,][A,,A,][E,B,] | %2
 [A,,A,][A,,A,][A,,A,] [A,,A,]2 [A,,A,] | [D,A,][D,A,C][D,A,D] [E,G,E]2 [E,G,D] | z G,F, E,2 A,, | %5
 D,[D,D][D,D] [D,D][D,D][D,A,] |[M:5/8] [A,,A,][A,,A,][E,G,D] [A,E]2 |[M:1/8] [A,,A,]/[A,,A,]/ | %8
[M:3/4] [B,,A,][B,,A,] [B,,G,] [B,,F,]2 [B,,A,] |[M:5/8] [G,E]2 A, B,2 |[M:1/8] [E,G,] | %11
[M:3/4] [A,,A,][A,,A,] [A,,A,] [A,,A,]2 [A,,A,] | [B,,A,]3 [B,,F,]2 [B,,B,] | %13
 [E,D][E,B,] E, E,2 E, | z E, F, E,2 A,, | D,D, D, =D,2 [A,_C=D]/[A,CD]/ | %16
[M:25/32] [A,C][F,A,C][E,G,D] [A,E]2 [D,A,]-[D,A,]/4 | %17
[M:3/4] (7:8:8[E,A,E]3/4[E,C]-[E,C]/8E,3/4E,3/4-[E,=D]-[E,D]/8E,3/4 |[M:5/8] z E-E/4 z/4 z/ z2 |] %19
V:3
 x6 | x6 | x6 | x6 | .[A,C]3 z3 | x6 |[M:5/8] x5 |[M:1/8] x |[M:3/4] x6 |[M:5/8] z2 =D _D2 | %10
[M:1/8] x |[M:3/4] x6 | x6 | x6 | .[A,C]2 D C2 [A,CE] | x6 |[M:25/32] z z/4 z z/4 z2 z/ .F z/4 | %17
[M:3/4] x6 |[M:5/8] [A,A]3- [A,EA]2 |] %19
V:4
 x6 | x6 | x6 | x6 | A,,6 | x6 |[M:5/8] x5 |[M:1/8] x |[M:3/4] x6 |[M:5/8] E,-E,- E,3 |[M:1/8] x | %11
[M:3/4] x6 | x6 | x6 | A,,6 | x6 |[M:25/32] x25/4 |[M:3/4] x6 |[M:5/8] z2 D- D/4 z/4 z/ z |] %19
V:5
 x6 | x6 | x6 | x6 | x6 | x6 |[M:5/8] x5 |[M:1/8] x |[M:3/4] x6 |[M:5/8] x5 |[M:1/8] x | %11
[M:3/4] x6 | x6 | x6 | x6 | x6 |[M:25/32] x25/4 |[M:3/4] x6 |[M:5/8] C2- C/4 z/4 z/ z2 |] %19
V:6
 x6 | x6 | x6 | x6 | x6 | x6 |[M:5/8] x5 |[M:1/8] x |[M:3/4] x6 |[M:5/8] x5 |[M:1/8] x | %11
[M:3/4] x6 | x6 | x6 | x6 | x6 |[M:25/32] x25/4 |[M:3/4] x6 |[M:5/8] z z2 C2 |] %19
V:7
 x6 | x6 | x6 | x6 | x6 | x6 |[M:5/8] x5 |[M:1/8] x |[M:3/4] x6 |[M:5/8] x5 |[M:1/8] x | %11
[M:3/4] x6 | x6 | x6 | x6 | x6 |[M:25/32] x25/4 |[M:3/4] x6 |[M:5/8] A,,-A,,- A,,3 |] %19

